X: 1
T: The Glen Cottage
R: polka
M: 2/4
L: 1/8
K: Emin
BE FA | B/d/B/A/ FA | BE FE | D>E FA |
BE FA | B/d/B/A/ FA | Be B/d/B/A/ | FE E2 :|
B2 B^c/d/ | eB ^cB | A2 AB/^c/ | dA BA |
B2 B^c/d/ | eB ^cA | Be B/d/B/A/ | FE E2 :|


Tune 5278	Setting 17506

